!! 00000] TT[00
!! NN
!!!OTL: Qiao qing lang
!!!ARE: Asia, China,ÿLiaoning
!! Ethnic Group: Han
!! III, 278
!!!SCT: C0297A
!!!YEM: Copyright 1995, estate of Helmut Schaffrath.
**kern
*ICvox
*Ivox
*M2/4
*k[f#]
*G:
{8g
8g
8e
8g
=1
4a
8.a
16b
=2
8g
8g
8e
8g
=3
2a}
=4
{4a
8gg
8ee
=5
4dd
8dd
8a
=6
8.dd
16ee
8b
8a
=7
8g
8g
8e
16d
16e
=8
4g
8g
8e}
=9
{8r
16a
16a
8a
8a
=10
8gg
8ee
8ee
8dd
=11
8ee
16e
16g
8dd
8a
=12
4g
8g
8e}
=13
{8dd
8e
8d
8d
=14
8r
8g
8e
8g
=15
4a
8g
8e
=16
8d
8d
16c
16d
8e
=17
2d}
=18
{8a
16a
16g
8a
8dd
=19
4a
4a
=20
8g
16a
16b
8e
16d
16e
=21
4g
4g}
=22
{8.e
16g
8a
8a
=23
8gg
8ee
8dd
8b
=24
8.ee
16dd
8b
8a
=25
4g
8g
8e}
=26
{8dd
8e
8d
8d
=27
8r
4dd
8b
=28
4a
8g
8e
=29
8d
8d
16c
16d
8e
=30
2d}
=31
{2a
=32
8.e
16g
8a
8a
=33
8g
8g
8e
16d
16e
=34
4g
8g
8e}
=35
{8dd
8e
8d
8d
=36
8r
4dd
8b
=37
4a
8g
8e
=38
8d
8d
16c
16d
8e
=39
2d}
=40
{8.g
16a
8dd
8b
=41
8a
8a
8a
8a
=42
8g
8a
8dd
8b
=43
4.a
8r}
=44
{8.a
16b
8dd
8dd
=45
8gg
8ee
4dd
=46
8dd
16e
16dd
8b
8a
=47
4g
8g
8e}
=48
{8dd
16e
16e
8d
8d
=49
8r
8g
8e
8b
=50
4a
8g
8e
=51
8d
8d
16c
16d
8e
=52
2d}
=53
{8g
8g
8e
8g
=54
4a
4a
=55
8g
8g
8e
8g
=56
4a
4r}
=57
{8a
8g
8a
8g
=58
8gg
8ee
4dd
=59
8gg
8b
8b
8a
=60
4g
4g}
=61
{8dd
16e
16e
8d
8d
=62
8r
8g
8e
8b
=63
4a
8g
8e
=64
8d
8d
16c
16d
8e
=65
2dd}
=66
{8r
8a
8e
8g
=67
8a
8g
4a}
=68
{16dd
16e
16e
16e
8d
8d
=69
8r
16g
16g
8e
8b
=70
4a
8g
8e
=71
8d
8d
16c
16d
8e
=72
2d}
=73
{8dd
8dd
8gg
8b
=74
4a
4a
=75
8g
8g
8e
8g
=76
2a}
=77
{4a
4ee
=78
4.dd
8a
=79
8.dd
16ee
8b
8a
=80
8g
8g
8e
8d
=81
4g
8g
8e}
=82
{8r
16dd
16dd
8e
16a
16a
=83
8.ee
16ee
8dd
8dd
=84
8r
4dd
8b
=85
4a
8g
8e}
=86
{8dd
8e
8d
8d
=87
8r
8g
8e
8b
=88
4a
8g
8e
=89
8d
8d
16c
16d
8e
=90
2d}
==
!!!AGN: Xiaodiao, Shuai xigua, Zhaimianhua diao
!! S. 279, 2. Zeile, vorl. Takt: neue Weise; letzte Zeile, vorl.
!!    T.: neue Weise; S. 280 2. Z., letzter T.: neue Weise; unten,
!!    letzte Z.: Variante; S. 281, vor Doppelstr.: Variante; letzte
!!    beiden Zeilen entsprechen einer Coda. - Enthaelt Elemente der
!!    prosaischen Musik.
!!    +++Das Lied wurde GETEILT!!+++Fortsetzung folgt unter gleicher
!!    Signatur im folgenden Dokument.
!!    Wenig Verzierungen, Glissandi. Vor- und Zwischenspiele weggelassen.
!!!ONB: ESAC (Essen Associative Code) Database: CHINA
!!!AMT: simple duple
!!!AIN: vox
!!!EED: Helmut Schaffrath
!!!EEV: 1.0
*-
